X:1
T:[ID 1-82]
T:[ID 1-82]
T:Bezeichnung standardisiert: Polonaise Tantz In dieser Quelle auch als: Pol. In dieser Quelle auch als: Polon\"aise In dieser Quelle auch als: Polonaise In dieser Quelle auch als: Poloniose In dieser Quelle auch als: Menuet In dieser Quelle auch als: Polonoise
T:Urheber unbekannt Datum in der hier transkribierten schriftlichen Quelle: vermutlich vor 1767
C:Urheber unbekannt
C:Datum in der hier transkribierten schriftlichen Quelle: vermutlich vor 1767
L:1/8
M:3/4
K:D
V:1 treble 
V:1
 f/g/a/f/ dddd | c/d/e/c/ AAAA | A/B/c/d/ e/d/e/f/ eg |{a} gf/e/ f2 d2 ::"^\201" g/a/b/g/ e2 d2 | %5
 c/d/e/c/ A2 A,2 |"^O)" A/B/c/d/ e/d/e/f/ eg | Ad f/d/f/g/ fa |"^O)" A/B/c/d/ e/d/e/f/ eg | %9
 Ad f/d/f/g/ fa | AA/G/ A2 g2 | f/e/d/c/ d2 D2 :| %12

